docs/assets/walker/probability.svg

<svg fill="none" height="200" viewBox="0 0 409 111" xmlns="http://www.w3.org/2000/svg"><path d="m0 0h409v111h-409z" fill="#fff"/><path d="m91.78 53.8969 26.635-26.6352c-6.873-6.7931-16.257-11.0505-26.635-11.2541z" fill="#e0e0e0"/><path d="m129.992 54.22h-37.432l26.404-26.4044c6.662 6.8512 10.827 16.142 11.028 26.4044z" fill="#e0e0e0"/><path d="m119.156 81.986c6.717-7.006 10.844-16.514 10.844-26.986h-37.83z" fill="#e0e0e0"/><path d="m118.611 82.5437c-6.89 6.9063-16.354 11.2431-26.831 11.4486v-38.2792z" fill="#bdbdbd"/><path d="m91 94v-38.22l-27.1844 27.1844c7.0244 6.8297 16.6132 11.0356 27.1844 11.0356z" fill="#bdbdbd"/><path d="m63.2618 82.4151 27.4151-27.4151h-38.6769c0 10.6874 4.2989 20.3707 11.2618 27.4151z" fill="#828282"/><path d="m91 16v37.83l-26.986-26.986c7.006-6.7167 16.514-10.844 26.986-10.844z" fill="#333"/><path d="m63.4563 27.3894 26.8306 26.8306h-38.2793c.2056-10.4768 4.5424-19.9409 11.4487-26.8306z" fill="#828282"/><path d="m90.2049 53.7052c-.7684.3095-1.1404 1.1833-.8309 1.9518.3095.7684 1.1834 1.1404 1.9518.8309zm31.8321-11.2049-17.15-2.4286 6.472 16.0662zm-30.7112 13.9876 15.6352-6.2981-1.12-2.7827-15.6361 6.2981zm15.6352-6.2981 3.114-1.2541-1.121-2.7827-3.113 1.2541z" fill="#000"/><circle cx="91.39" cy="54.61" fill="#000" r="2.73"/><path d="m198.683 89.1342h178.366" stroke="#e0e0e0" stroke-linecap="square" stroke-width="2"/><path d="m198.683 88.2683v-69.2683" stroke="#e0e0e0" stroke-linecap="square" stroke-width="2"/><path d="m221.195 69.2195h17.3171v17.3171h-17.3171z" fill="#e0e0e0"/><path d="m221.195 50.1707h17.3171v17.3171h-17.3171z" fill="#e0e0e0"/><path d="m221.195 31.1219h17.3171v17.3171h-17.3171z" fill="#e0e0e0"/><path d="m255.829 50.1707h17.3171v17.3171h-17.3171z" fill="#bdbdbd"/><path d="m255.829 69.2195h17.3171v17.3171h-17.3171z" fill="#bdbdbd"/><path d="m293.927 50.1707h17.3171v17.3171h-17.3171z" fill="#828282"/><path d="m293.927 69.2195h17.3171v17.3171h-17.3171z" fill="#828282"/><path d="m328.561 69.2195h17.3171v17.3171h-17.3171z" fill="#333"/><g fill="#000"><path d="m231.16 102h1.254l-1.961-5.6367h-1.387l-1.957 5.6367h1.211l.43-1.367h1.98zm-1.433-4.5586h.027l.723 2.3086h-1.473z"/><path d="m263.965 102c1.203 0 1.949-.621 1.949-1.613 0-.7464-.562-1.305-1.328-1.3636v-.0312c.598-.0899 1.059-.6055 1.059-1.2227 0-.8633-.665-1.4062-1.723-1.4062h-2.453v5.6367zm-1.317-4.7578h.969c.551 0 .867.2578.867.7109 0 .4766-.359.7539-.988.7539h-.848zm0 3.8788v-1.6366h.989c.695 0 1.074.2812 1.074.8086 0 .539-.367.828-1.047.828z"/><path d="m302.961 102.098c1.383 0 2.348-.797 2.48-2.055h-1.148c-.125.668-.629 1.078-1.328 1.078-.903 0-1.469-.742-1.469-1.9452 0-1.1875.574-1.9336 1.465-1.9336.687 0 1.219.4531 1.328 1.1445h1.149c-.09-1.2617-1.122-2.1211-2.477-2.1211-1.633 0-2.668 1.0977-2.668 2.9141 0 1.8203 1.027 2.9183 2.668 2.9183z"/><path d="m334.469 96.3633v5.6367h2.152c1.691 0 2.688-1.051 2.688-2.8398 0-1.7891-.997-2.7969-2.688-2.7969zm1.179.9726h.832c1.04 0 1.625.6485 1.625 1.8282 0 1.2189-.57 1.8589-1.625 1.8589h-.832z"/></g></svg>

<svg height="200" viewBox="0 0 409 111" fill="none" xmlns="http://www.w3.org/2000/svg">
<rect width="409" height="111" fill="white"/>
<path d="M91.78 53.8969L118.415 27.2617C111.542 20.4686 102.158 16.2112 91.78 16.0076V53.8969Z" fill="#E0E0E0"/>
<path d="M129.992 54.22L92.56 54.22L118.964 27.8156C125.626 34.6668 129.791 43.9576 129.992 54.22Z" fill="#E0E0E0"/>
<path d="M119.156 81.986C125.873 74.98 130 65.472 130 55H92.17L119.156 81.986Z" fill="#E0E0E0"/>
<path d="M118.611 82.5437C111.721 89.45 102.257 93.7868 91.78 93.9923V55.7131L118.611 82.5437Z" fill="#BDBDBD"/>
<path d="M91 94V55.78L63.8156 82.9644C70.84 89.7941 80.4288 94 91 94Z" fill="#BDBDBD"/>
<path d="M63.2618 82.4151L90.6769 55H52C52 65.6874 56.2989 75.3707 63.2618 82.4151Z" fill="#828282"/>
<path d="M91 16V53.83L64.014 26.844C71.02 20.1273 80.528 16 91 16Z" fill="#333333"/>
<path d="M63.4563 27.3894L90.2869 54.22L52.0076 54.22C52.2132 43.7432 56.55 34.2791 63.4563 27.3894Z" fill="#828282"/>
<path d="M90.2049 53.7052C89.4365 54.0147 89.0645 54.8885 89.374 55.657C89.6835 56.4254 90.5574 56.7974 91.3258 56.4879L90.2049 53.7052ZM122.037 42.5003L104.887 40.0717L111.359 56.1379L122.037 42.5003ZM91.3258 56.4879L106.961 50.1898L105.841 47.4071L90.2049 53.7052L91.3258 56.4879ZM106.961 50.1898L110.075 48.9357L108.954 46.153L105.841 47.4071L106.961 50.1898Z" fill="black"/>
<circle cx="91.39" cy="54.61" r="2.73" fill="black"/>
<path d="M198.683 89.1342H377.049" stroke="#E0E0E0" stroke-width="2" stroke-linecap="square"/>
<path d="M198.683 88.2683V19" stroke="#E0E0E0" stroke-width="2" stroke-linecap="square"/>
<rect x="221.195" y="69.2195" width="17.3171" height="17.3171" fill="#E0E0E0"/>
<rect x="221.195" y="50.1707" width="17.3171" height="17.3171" fill="#E0E0E0"/>
<rect x="221.195" y="31.1219" width="17.3171" height="17.3171" fill="#E0E0E0"/>
<rect x="255.829" y="50.1707" width="17.3171" height="17.3171" fill="#BDBDBD"/>
<rect x="255.829" y="69.2195" width="17.3171" height="17.3171" fill="#BDBDBD"/>
<rect x="293.927" y="50.1707" width="17.3171" height="17.3171" fill="#828282"/>
<rect x="293.927" y="69.2195" width="17.3171" height="17.3171" fill="#828282"/>
<rect x="328.561" y="69.2195" width="17.3171" height="17.3171" fill="#333333"/>
<path d="M231.16 102H232.414L230.453 96.3633H229.066L227.109 102H228.32L228.75 100.633H230.73L231.16 102ZM229.727 97.4414H229.754L230.477 99.75H229.004L229.727 97.4414Z" fill="black"/>
<path d="M263.965 102C265.168 102 265.914 101.379 265.914 100.387C265.914 99.6406 265.352 99.082 264.586 99.0234V98.9922C265.184 98.9023 265.645 98.3867 265.645 97.7695C265.645 96.9062 264.98 96.3633 263.922 96.3633H261.469V102H263.965ZM262.648 97.2422H263.617C264.168 97.2422 264.484 97.5 264.484 97.9531C264.484 98.4297 264.125 98.707 263.496 98.707H262.648V97.2422ZM262.648 101.121V99.4844H263.637C264.332 99.4844 264.711 99.7656 264.711 100.293C264.711 100.832 264.344 101.121 263.664 101.121H262.648Z" fill="black"/>
<path d="M302.961 102.098C304.344 102.098 305.309 101.301 305.441 100.043H304.293C304.168 100.711 303.664 101.121 302.965 101.121C302.062 101.121 301.496 100.379 301.496 99.1758C301.496 97.9883 302.07 97.2422 302.961 97.2422C303.648 97.2422 304.18 97.6953 304.289 98.3867H305.438C305.348 97.125 304.316 96.2656 302.961 96.2656C301.328 96.2656 300.293 97.3633 300.293 99.1797C300.293 101 301.32 102.098 302.961 102.098Z" fill="black"/>
<path d="M334.469 96.3633V102H336.621C338.312 102 339.309 100.949 339.309 99.1602C339.309 97.3711 338.312 96.3633 336.621 96.3633H334.469ZM335.648 97.3359H336.48C337.52 97.3359 338.105 97.9844 338.105 99.1641C338.105 100.383 337.535 101.023 336.48 101.023H335.648V97.3359Z" fill="black"/>
</svg>
